X:1
T:For Norge
T:For Norge
T:S. S. Blicher
T:Andreas Peter Berggren
T:J. Neander
C:Andreas Peter Berggren
Z:J. Neander
%%score [ 1 2 3 4 ]
L:1/8
Q:1/4=114
M:2/4
K:D
V:1 treble-8 nm="T1"
V:2 treble-8 nm="T2"
V:3 bass nm="B1"
V:4 bass nm="B2"
V:1
!mf!"^Moderato" A3/2 A/ | d3 c | B3 A |!<(! (B>A)!<)! (B>c) |!>(! d2 A2!>)! | .g2 .f2 | .e2 .d2 | %7
w: 1.Op af|Nord- havs|dy- be|Van- * de _|knej- ser|Lan- det,|hvor sin|
w: 2.Men i|Da- le-|ne Na-|tu- * ren _|smi- ler,|Kvæ- get|blødt i|
w: 3.Held for|gam- le|Nor- ges|Kjæm- * pe- *|fjel- de!|for det|Folk, som|
!<(! e3/2 f/ e3/2!<)! d/ |!f! .c2 .A2 |!mf! e3/2 f/ e3/2 f/ | g2 e2 | B3/2 c/ B3/2 c/ | d2 A2 || %13
w: Tro- ne Fri- hed|rej- ser.|Højt fra vil- de|Fjel- de|styr- ter Fos med|Væl- de;|
w: Blom- ster- en- ge|hvi- ler,|Hu- set trygt bag|Skræn- ten,|Gut- ten sout hos|Jen- ten:|
w: i for- yn- get|Væl- de|fri- e Mar- ker|plø- je,|som de Bøl- ger|hø- je.|
[M:4/4]!f! !>!d6 !>!c2 | (!>!B3 c) !>!A4 |!ff! !>!g6 f2 | (!>!e>d) (c>d) (c>B) (A>d) | !>!f6 e2 | %18
w: Malm for-|in- * den,|Malm for-|in- * den, _ mæk- * tig _|Skov for-|
w: Kraft og|Kjær- lig- hed,|Kraft og|Kjær- * lig- * hed _ sig _|sam- men-|
w: Nor- ges|Hæ- * der,|Nor- ges|Hæ- * der _ fast _ som _|Him- len|
 .e2 .d2 z2 |] %19
w: u- den!|
w: slyn- ge!|
w: stan- de!|
V:2
!mf! F3/2 F/ | F3 A | G3 F |!<(! (G>F)!<)! (G>E) |!>(! F2 F2!>)! | .A2 .A2 | .c2 .A2 | %7
w: 1.Op af|Nord- havs|dy- be|Van- * de _|knej- ser|Lan- det,|hvor sin|
w: 2.Men i|Da- le-|ne Na-|tu- * ren _|smi- ler,|Kvæ- get|blødt i|
w: 3.Held for|gam- le|Nor- ges|Kjæm- * pe- *|fjel- de!|for det|Folk, som|
!<(! B3/2 B/ B3/2!<)! B/ |!f! .A2 .A2 |!mf! c3/2 c/ c3/2 c/ | B2 B2 | G3/2 G/ G3/2 G/ | A2 A2 || %13
w: Tro- ne Fri- hed|rej- ser.|Højt fra vil- de|Fjel- de|styr- ter Fos med|Væl- de;|
w: Blom- ster- en- ge|hvi- ler,|Hu- set trygt bag|Skræn- ten,|Gut- ten sout hos|Jen- ten:|
w: i for- yn- get|Væl- de|fri- e Mar- ker|plø- je,|som de Bøl- ger|hø- je.|
[M:4/4]!f! !>!B6 !>!A2 | (!>!G3 G) !>!A4 |!ff! !>!e6 d2 | (!>!c>d) (c>d) (c>B) (A>d) | !>!d6 c2 | %18
w: Malm for-|in- * den,|Malm for-|in- * den, _ mæk- * tig _|Skov for-|
w: Kraft og|Kjær- lig- hed,|Kraft og|Kjær- * lig- * hed _ sig _|sam- men-|
w: Nor- ges|Hæ- * der,|Nor- ges|Hæ- * der _ fast _ som _|Him- len|
 .c2 .A2 z2 |] %19
w: u- den!|
w: slyn- ge!|
w: stan- de!|
V:3
!mf! D,3/2 D,/ | D,3 D, | D,3 D, |!<(! D,2!<)! D,2 |!>(! D,2 D,2!>)! | .E,2 .F,2 | .G,2 .A,2 | %7
w: 1.Op af|Nord- havs|dy- be|Van- de|knej- ser|Lan- det,|hvor sin|
w: 2.Men i|Da- le-|ne Na-|tu- ren|smi- ler,|Kvæ- get|blødt i|
w: 3.Held for|gam- le|Nor- ges|Kjæm- pe-|fjel- de!|for det|Folk, som|
!<(! B,3/2 B,/ B,3/2!<)! B,/ |!f! .A,2 .A,2 |!mf! A,3/2 A,/ A,3/2 A,/ | G,2 G,2 | %11
w: Tro- ne Fri- hed|rej- ser.|Højt fra vil- de|Fjel- de|
w: Blom- ster- en- ge|hvi- ler,|Hu- set trygt bag|Skræn- ten,|
w: i for- yn- get|Væl- de|fri- e Mar- ker|plø- je,|
 G,3/2 G,/ G,3/2 G,/ | F,2 F,2 ||[M:4/4]!f! !>!F,6 !>!F,2 | (!>!D,3 D,) !>!F,4 |!ff! !>!A,6 A,2 | %16
w: styr- ter Fos med|Væl- de;|Malm for-|in- * den,|Malm for-|
w: Gut- ten sout hos|Jen- ten:|Kraft og|Kjær- lig- hed,|Kraft og|
w: som de Bøl- ger|hø- je.|Nor- ges|Hæ- * der,|Nor- ges|
 !>!A,2 (G,>A,) (G,>F,) (E,>F,) | !>!A,6 G,2 | .G,2 .F,2 z2 |] %19
w: in- den, _ mæk- * tig _|Skov for-|u- den!|
w: Kjær- lig- * hed _ sig _|sam- men-|slyn- ge!|
w: Hæ- der _ fast _ som _|Him- len|stan- de!|
V:4
!mf! D,3/2 D,/ | D,3 D, | D,3 D, |!<(! D,2!<)! D,2 |!>(! D,2 D,2!>)! | .C,2 .D,2 | .E,2 .F,2 | %7
w: 1.Op af|Nord- havs|dy- be|Van- de|knej- ser|Lan- det,|hvor sin|
w: 2.Men i|Da- le-|ne Na-|tu- ren|smi- ler,|Kvæ- get|blødt i|
w: 3.Held for|gam- le|Nor- ges|Kjæm- pe-|fjel- de!|for det|Folk, som|
!<(! G,3/2 G,/ ^G,3/2!<)! G,/ |!f! .A,2 .A,,2 |!mf! A,3/2 A,/ A,3/2 A,/ | E,2 E,2 | %11
w: Tro- ne Fri- hed|rej- ser.|Højt fra vil- de|Fjel- de|
w: Blom- ster- en- ge|hvi- ler,|Hu- set trygt bag|Skræn- ten,|
w: i for- yn- get|Væl- de|fri- e Mar- ker|plø- je,|
 G,3/2 G,/ G,3/2 G,/ | D,2 D,2 ||[M:4/4]!f! !>!B,,6 !>!F,,2 | (!>!G,,3 G,,) !>!D,4 | %15
w: styr- ter Fos med|Væl- de;|Malm for-|in- * den,|
w: Gut- ten sout hos|Jen- ten:|Kraft og|Kjær- lig- hed,|
w: som de Bøl- ger|hø- je.|Nor- ges|Hæ- * der,|
!ff! !>!C,6 D,2 | (!>!G,>F,) (E,>F,) (E,>D,) (C,>B,,) | !>!A,,6 A,,2 | .A,,2 .D,2 z2 |] %19
w: Malm for-|in- * den, _ mæk- * tig _|Skov for-|u- den!|
w: Kraft og|Kjær- * lig- * hed _ sig _|sam- men-|slyn- ge!|
w: Nor- ges|Hæ- * der _ fast _ som _|Him- len|stan- de!|

